public/images/card-icon.svg

<svg width="26" height="20" viewBox="0 0 26 20" fill="none" xmlns="http://www.w3.org/2000/svg">
<path d="M19.5 15.9375H21.8636C22.2182 15.9375 22.4545 15.7 22.4545 15.3438V12.9688C22.4545 12.6125 22.2182 12.375 21.8636 12.375H19.5C19.1455 12.375 18.9091 12.6125 18.9091 12.9688V15.3438C18.9091 15.7 19.1455 15.9375 19.5 15.9375ZM24.8182 0.5H1.18182C0.531818 0.5 0 1.03438 0 1.6875V18.3125C0 18.9656 0.531818 19.5 1.18182 19.5H24.8182C25.4682 19.5 26 18.9656 26 18.3125V1.6875C26 1.03438 25.4682 0.5 24.8182 0.5ZM24.8182 16.3125C24.8182 17.4171 23.9228 18.3125 22.8182 18.3125H3.18182C2.07725 18.3125 1.18182 17.4171 1.18182 16.3125V10.8125C1.18182 9.70793 2.07725 8.8125 3.18182 8.8125H22.8182C23.9228 8.8125 24.8182 9.70793 24.8182 10.8125V16.3125ZM24.8182 2.875C24.8182 3.53084 24.2865 4.0625 23.6307 4.0625H2.36932C1.71348 4.0625 1.18182 3.53084 1.18182 2.875C1.18182 2.21916 1.71348 1.6875 2.36932 1.6875H23.6307C24.2865 1.6875 24.8182 2.21916 24.8182 2.875ZM4.13636 13.5625H14.7727C15.1273 13.5625 15.3636 13.325 15.3636 12.9688C15.3636 12.6125 15.1273 12.375 14.7727 12.375H4.13636C3.78182 12.375 3.54545 12.6125 3.54545 12.9688C3.54545 13.325 3.78182 13.5625 4.13636 13.5625ZM4.13636 15.9375H12.4091C12.7636 15.9375 13 15.7 13 15.3438C13 14.9875 12.7636 14.75 12.4091 14.75H4.13636C3.78182 14.75 3.54545 14.9875 3.54545 15.3438C3.54545 15.7 3.78182 15.9375 4.13636 15.9375Z" fill="#B7C7DC"/>
</svg>

<svg xmlns="http://www.w3.org/2000/svg" width="26" height="20" fill="none">
    <path fill="#B7C7DC" d="M19.5 15.94h2.36c.36 0 .6-.24.6-.6v-2.37c0-.36-.24-.6-.6-.6H19.5c-.35 0-.6.24-.6.6v2.37c0 .36.25.6.6.6ZM24.82.5H1.18C.53.5 0 1.03 0 1.69V18.3c0 .66.53 1.19 1.18 1.19h23.64c.65 0 1.18-.53 1.18-1.19V1.7C26 1.03 25.47.5 24.82.5Zm0 15.81a2 2 0 0 1-2 2H3.18a2 2 0 0 1-2-2v-5.5c0-1.1.9-2 2-2h19.64a2 2 0 0 1 2 2v5.5Zm0-13.43c0 .65-.53 1.18-1.19 1.18H2.37a1.19 1.19 0 1 1 0-2.37h21.26c.66 0 1.19.53 1.19 1.19ZM4.14 13.55h10.63c.36 0 .6-.24.6-.6 0-.35-.24-.59-.6-.59H4.14c-.36 0-.6.24-.6.6 0 .35.24.6.6.6Zm0 2.38h8.27c.35 0 .59-.24.59-.6 0-.35-.24-.59-.6-.59H4.15c-.36 0-.6.24-.6.6 0 .35.24.59.6.59Z"/>
</svg>
